X: 183
T: Sound the Pibroch
M:4/4
R:song
Q:1/2=105
L:1/8
Z:Alf Warnock - alf0@rogers.com
K:C
| "C"e3d d2c2|"F"c2A2 "C"G3e|"C"e3d d2c2|"F"c2A2 "C"G3A|
c3c c2d2|e2g2 "F"a4| "C"g3a g2e2|"G7"d4 "C"c4|
%%text Chorus
"C"cc3 c3d|e3d c2G2|"Dm"dd3 d3e|f3e d2A2|
"C"cc3 c3d|e2g2 "F"a4| "C"g3a g2e2|"G7"d4 "C"c4|

